X:5
T:En faisant le tour du moulin
R:Rondanse
A:Normandie
O:France
Z:Transcrit et/ou corrigé par Michel BELLON - 2005-09-10
Z:Pour toute observation mailto:galouvielle@free.fr
%%continueall 1
M:6/8
Q:1/4=104
K:G
BBB | d3cBA | G3 BBB|d2 G A3|G3 BBB| d3 cBA|G3 BBB|d2 G A3| G3 z2
w:En fai-sant le tour du mou-lin j'a-per-çois la meu-niè-re En fai-sant le tour du mou-lin j'a-per-çois la meu-niè-re
 B|d2 e d2 B| d2 e d2 B|d2 e d2 B|d2 e !breath!d2B | c2d e2 e|d2 c B3|:
w: Qui cul-ti-vait dans son jar-din Qui cul-ti-vait dans son jar-din Rose à la bou-ton-niè_re
ddd e2 d|cBc A2A|c2d e2c|ddd G3 :|
w:Je lui ai dit belle en_ pas-sant n'vou-drais tu pas cau-ser un ins-tant~!

%%footer $D   Galouvielle-MBe 2006 \nFarandole (France)
